X: 04013
T: CAMMY'S TUNE
C: Bob McQuillen 16 May 79
B: Bob's Note Book 04 #13
%R: reel
Z: 2020 John Chambers <jc:trillian.mit.edu>
M: C
L: 1/8
K: Em
AF \
| E2EF EDFA | B2Bd BAde | f2fa fdBd | edef dBAF |\
| E2EF EDFA | BABd B2de | fafd edfe | dBAF E2 :|
|: FA \
| B2AF EDFA | BAFD E2FA | B2AF EDdf | edBA B2de |\
| f2ed BAde | fedf e2de | f2ed BABd | AFDF E2 :|
%%begintext align
%% With very Best Wishes always
%% to Campbell Kaynor, who
%% brings such joy to us all
%% with himself and his fiddle.
%%endtext

%%sep 1 1 500

%%sep 1 1 500

